; generated by PrusaSlicer 2.7.0+win64 on 2024-04-12 at 07:24:00 UTC


;
;

;
;

;
;

;
;
; 

; external perimeters extrusion width = 0.45mm
; perimeters extrusion width = 0.45mm
; infill extrusion width = 0.45mm
; solid infill extrusion width = 0.45mm
; top infill extrusion width = 0.42mm
; first layer extrusion width = 0.50mm

M73 P0 R66
M201 X4000 Y4000 Z200 E2500 ; sets maximum accelerations, mm/sec^2
M203 X300 Y300 Z40 E100 ; sets maximum feedrates, mm / sec
M204 P4000 R1200 T4000 ; sets acceleration (P, T) and retract acceleration (R), mm/sec^2
M205 X8.00 Y8.00 Z2.00 E10.00 ; sets the jerk limits, mm/sec
M205 S0 T0 ; sets the minimum extruding and travel feed rate, mm/sec

M486 S0
M486 Abase macchina micro lab.stl
M486 S-1

;TYPE:Custom
M17 ; enable steppers
M862.1 P0.4 ; nozzle diameter check
M862.3 P "MK4" ; printer model check
M862.5 P2 ; g-code level check
M862.6 P"Input shaper" ; FW feature check
M115 U5.0.1+12089

M555 X69 Y16 W112 H174

G90 ; use absolute coordinates
M83 ; extruder relative mode

M140 S60 ; set bed temp
M104 T0 S170 ; set extruder temp for bed leveling
M109 T0 R170 ; wait for temp

M84 E ; turn off E motor

G28 ; home all without mesh bed level

G1 X42 Y-4 Z5 F4800

M302 S160 ; lower cold extrusion limit to 160C


G1 E-2 F2400 ; retraction


M84 E ; turn off E motor

G29 P9 X10 Y-4 W32 H4

M106 S100

G0 Z40 F10000

M190 S60 ; wait for bed temp

M107

;
; MBL
;
M84 E ; turn off E motor
G29 P1 ; invalidate mbl & probe print area
G29 P1 X0 Y0 W50 H20 C ; probe near purge place
G29 P3.2 ; interpolate mbl probes
G29 P3.13 ; extrapolate mbl outside probe area
G29 A ; activate mbl

; prepare for purge
M104 S230
G0 X0 Y-4 Z15 F4800 ; move away and ready for the purge
M109 S230

G92 E0
M569 S0 E ; set spreadcycle mode for extruder

;
; Extrude purge line
;
G92 E0 ; reset extruder position
G1 E2 F2400 ; deretraction after the initial one before nozzle cleaning
G0 E7 X15 Z0.2 F500 ; purge
G0 X25 E4 F500 ; purge
G0 X35 E4 F650 ; purge
G0 X45 E4 F800 ; purge
G0 X48 Z0.05 F8000 ; wipe, move close to the bed
G0 X51 Z0.2 F8000 ; wipe, move quickly away from the bed

G92 E0
M221 S100 ; set flow to 100%
G21 ; set units to millimeters
G90 ; use absolute coordinates
M83 ; use relative distances for extrusion
M900 K0.05 ; Filament gcode


M572 S0.038 ; Filament gcode


M142 S36 ; set heatbreak target temp
M107
;LAYER_CHANGE
;Z:0.2
;HEIGHT:0.2
;BEFORE_LAYER_CHANGE
G92 E0.0
;0.2
M201 X4000 Y4000
M74 W0

G1 E-.7 F2100
G1 Z.2 F720
;AFTER_LAYER_CHANGE
;0.2
M486 S0
G1 X89.887 Y145.313 F18000
G1 Z.2 F720
G1 E.7 F2100
M204 P500
;TYPE:Perimeter
;WIDTH:0.499999
G1 F2400
G1 X89.907 Y145.221 E.00358
G1 X89.907 Y130.91 E.54391
G1 X93.223 Y130.91 E.12603
G1 X93.345 Y130.899 E.00466
G1 X93.631 Y130.776 E.01183
G1 X93.834 Y130.537 E.01192
G1 X93.909 Y130.224 E.01223
G1 X93.909 Y116.777 E.51107
G2 X93.767 Y116.359 I-.856 J.057 E.01697
G1 X93.52 Y116.158 E.0121
G1 X93.223 Y116.091 E.01157
G1 X89.907 Y116.091 E.12603
G1 X89.907 Y65.593 E1.91924
G1 X89.887 Y64.613 E.03725
G1 X89.75 Y64.342 E.01154
G1 X89.524 Y64.163 E.01096
G1 X89.221 Y64.093 E.01182
G1 X69.907 Y64.093 E.73405
G1 X69.907 Y20.907 E1.64134
G1 X178.093 Y20.907 E4.11175
G1 X178.093 Y64.093 E1.64134
G1 X159.671 Y64.093 E.70015
M73 P0 R65
G1 X158.64 Y64.107 E.03919
G1 X158.363 Y64.234 E.01158
G1 X158.162 Y64.478 E.01201
G1 X158.093 Y64.779 E.01174
G1 X158.093 Y116.091 E1.95018
G1 X154.776 Y116.091 E.12607
G1 X154.642 Y116.104 E.00512
G1 X154.345 Y116.243 E.01246
G1 X154.161 Y116.472 E.01116
G1 X154.09 Y116.777 E.0119
G1 X154.09 Y130.224 E.51107
G2 X154.225 Y130.633 I.858 J-.057 E.01655
G1 X154.456 Y130.831 E.01156
G1 X154.776 Y130.91 E.01253
G1 X158.093 Y130.91 E.12607
G1 X158.093 Y144.395 E.51251
G1 X158.108 Y145.363 E.03679
G1 X158.231 Y145.634 E.01131
G1 X158.473 Y145.835 E.01196
G1 X158.779 Y145.907 E.01195
G1 X180.093 Y145.907 E.81007
G1 X180.093 Y163.436 E.66621
G1 X180.093 Y189.093 E.97513
G1 X71.907 Y189.093 E4.11175
G1 X71.907 Y145.907 E1.64134
G1 X88.716 Y145.907 E.63885
G1 X89.402 Y145.883 E.02609
G1 X89.659 Y145.749 E.01102
G1 X89.847 Y145.502 E.0118
G1 X89.875 Y145.372 E.00505
M204 P4000
M204 T4000
G1 X89.45 Y145.221 F18000
M204 P500
;TYPE:External perimeter
G1 F2400
G1 X89.45 Y130.453 E.56128
G1 X93.223 Y130.453 E.1434
G1 X93.383 Y130.388 E.00656
G1 X93.452 Y130.224 E.00676
G1 X93.452 Y116.777 E.51107
G1 X93.39 Y116.62 E.00642
G1 X93.223 Y116.548 E.00691
G1 X89.45 Y116.548 E.1434
G1 X89.45 Y64.779 E1.96755
G1 X89.379 Y64.613 E.00686
G1 X89.221 Y64.55 E.00646
G1 X69.45 Y64.55 E.75142
G1 X69.45 Y20.45 E1.67608
G1 X178.55 Y20.45 E4.14648
G1 X178.55 Y64.55 E1.67608
G1 X158.779 Y64.55 E.75142
G1 X158.613 Y64.621 E.00686
G1 X158.55 Y64.779 E.00646
G1 X158.55 Y116.548 E1.96755
G1 X154.776 Y116.548 E.14344
G1 X154.613 Y116.616 E.00671
G1 X154.547 Y116.777 E.00661
G1 X154.547 Y130.224 E.51107
G1 X154.613 Y130.385 E.00661
G1 X154.776 Y130.453 E.00671
G1 X158.55 Y130.453 E.14344
G1 X158.55 Y145.228 E.56154
G1 X158.622 Y145.388 E.00667
G1 X158.779 Y145.45 E.00642
G1 X180.55 Y145.45 E.82743
G1 X180.55 Y163.436 E.68358
G1 X180.55 Y189.55 E.9925
G1 X71.45 Y189.55 E4.14648
G1 X71.45 Y145.45 E1.67608
M73 P1 R65
G1 X89.221 Y145.45 E.67541
G1 X89.379 Y145.387 E.00646
G1 X89.426 Y145.277 E.00455
M204 P4000
G1 X89.447 Y144.877 F18000
G1 E-.7 F2100
G1 Z.4 F720
G1 X145.942 Y169.414 F18000
G1 Z.2 F720
G1 E.7 F2100
M204 P500
;TYPE:Perimeter
G1 F2400
G1 X145.925 Y169.482 E.00266
G1 X143.074 Y176.362 E.28304
G1 X142.895 Y176.613 E.01172
G1 X142.639 Y176.756 E.01114
G1 X142.322 Y176.775 E.01207
G1 X142.178 Y176.733 E.0057
G1 X138.995 Y175.414 E.13095
G1 X138.736 Y175.225 E.01219
G1 X138.593 Y174.95 E.01178
G1 X138.582 Y174.665 E.01084
G1 X138.958 Y173.712 E.03894
G1 X141.475 Y167.638 E.24989
G1 X141.658 Y167.383 E.01193
G1 X141.918 Y167.242 E.01124
G1 X142.216 Y167.224 E.01135
G3 X145.554 Y168.586 I-50.444 J128.383 E.13702
G1 X145.8 Y168.759 E.01143
G1 X145.942 Y169.001 E.01066
G1 X145.973 Y169.294 E.0112
G1 X145.957 Y169.356 E.00243
M204 P4000
G1 X145.473 Y169.377 F18000
M204 P500
;TYPE:External perimeter
G1 F2400
G1 X142.652 Y176.187 E.28015
G1 X142.531 Y176.309 E.00653
G1 X142.353 Y176.31 E.00677
G1 X139.17 Y174.992 E.13093
G1 X139.046 Y174.867 E.00669
G1 X139.046 Y174.693 E.00661
G1 X141.897 Y167.813 E.28304
G1 X142.021 Y167.69 E.00664
G1 X142.196 Y167.69 E.00665
G1 X145.379 Y169.008 E.13093
G1 X145.508 Y169.147 E.00721
G1 X145.503 Y169.307 E.00608
G1 X145.496 Y169.321 E.00059
M204 P4000
G1 X145.343 Y169.691 F18000
G1 E-.7 F2100
G1 Z.4 F720
G1 X111.941 Y173.808 F18000
G1 Z.2 F720
G1 E.7 F2100
M204 P500
;TYPE:Perimeter
G1 F2400
G1 X111.976 Y174.019 E.00813
G1 X111.891 Y174.306 E.01138
G3 X111.554 Y174.607 I-.712 J-.458 E.01738
G1 X108.371 Y175.926 E.13095
G1 X108.084 Y175.978 E.01109
G1 X107.803 Y175.906 E.01102
G1 X107.556 Y175.699 E.01225
G1 X107.475 Y175.555 E.00628
G1 X104.624 Y168.674 E.28308
G1 X104.573 Y168.379 E.01138
G1 X104.651 Y168.091 E.01134
G1 X104.861 Y167.852 E.01209
G3 X108.178 Y166.459 I60.376 J139.182 E.13674
G1 X108.487 Y166.409 E.0119
G1 X108.767 Y166.49 E.01108
G1 X109.002 Y166.698 E.01193
G1 X109.409 Y167.637 E.0389
G1 X111.925 Y173.711 E.24987
G1 X111.931 Y173.748 E.00142
M204 P4000
G1 X111.502 Y173.886 F18000
M204 P500
;TYPE:External perimeter
G1 F2400
G1 X111.505 Y174.056 E.00646
G1 X111.379 Y174.185 E.00685
G1 X108.196 Y175.503 E.13093
G1 X108.028 Y175.506 E.00639
G1 X107.897 Y175.38 E.00691
G1 X105.047 Y168.499 E.28307
G1 X105.047 Y168.322 E.00673
G1 X105.17 Y168.2 E.00658
G1 X108.353 Y166.882 E.13093
G1 X108.55 Y166.892 E.0075
G1 X108.652 Y167.005 E.00579
G1 X111.48 Y173.831 E.28081
M204 P4000
G1 X111.333 Y174.203 F18000
G1 E-.7 F2100
G1 Z.4 F720
G1 X111.714 Y116.097 F18000
G1 Z.2 F720
G1 E.7 F2100
M204 P500
;TYPE:Perimeter
G1 F2400
G1 X111.776 Y116.091 E.00237
G1 X116.279 Y116.093 E.17114
G1 X116.58 Y116.191 E.01203
G1 X116.804 Y116.412 E.01196
G1 X116.906 Y116.717 E.01222
G1 X116.909 Y116.777 E.00228
G1 X116.909 Y130.224 E.51107
G1 X116.845 Y130.513 E.01125
G1 X116.654 Y130.758 E.01181
G1 X116.379 Y130.892 E.01163
G3 X111.774 Y130.91 I-3.105 J-206.565 E.17502
G1 X111.48 Y130.843 E.01146
G1 X111.232 Y130.642 E.01213
G3 X111.09 Y130.224 I.714 J-.475 E.01697
G1 X111.09 Y116.777 E.51107
G1 X111.165 Y116.464 E.01223
G1 X111.359 Y116.232 E.01149
G1 X111.641 Y116.104 E.01177
G1 X111.655 Y116.103 E.00053
M204 P4000
G1 X111.776 Y116.548 F18000
M204 P500
;TYPE:External perimeter
G1 F2400
G1 X116.242 Y116.549 E.16974
G1 X116.397 Y116.627 E.00659
G1 X116.452 Y116.777 E.00607
G1 X116.452 Y130.224 E.51107
G1 X116.385 Y130.387 E.0067
G1 X116.223 Y130.453 E.00665
G1 X111.775 Y130.453 E.16905
G1 X111.616 Y130.388 E.00653
G1 X111.547 Y130.224 E.00676
G1 X111.547 Y116.777 E.51107
G1 X111.616 Y116.613 E.00676
G1 X111.72 Y116.571 E.00426
M204 P4000
G1 X112.119 Y116.551 F18000
G1 E-.7 F2100
G1 Z.4 F720
G1 X141.902 Y116.709 F18000
G1 Z.2 F720
G1 E.7 F2100
M204 P500
;TYPE:Perimeter
G1 F2400
G3 X141.909 Y116.777 I-.851 J.125 E.0026
G1 X141.909 Y130.224 E.51107
G1 X141.838 Y130.529 E.0119
G1 X141.654 Y130.758 E.01116
G1 X141.368 Y130.895 E.01205
G3 X136.776 Y130.91 I-3.141 J-251.362 E.17453
G1 X136.47 Y130.838 E.01195
G1 X136.233 Y130.644 E.01164
G1 X136.108 Y130.379 E.01114
G1 X136.09 Y130.224 E.00593
G1 X136.09 Y116.777 E.51107
G1 X136.155 Y116.485 E.01137
G1 X136.348 Y116.241 E.01182
G1 X136.645 Y116.104 E.01243
G1 X136.776 Y116.091 E.005
G1 X141.223 Y116.091 E.16901
G1 X141.528 Y116.162 E.0119
G1 X141.774 Y116.368 E.01219
G3 X141.891 Y116.65 I-.723 J.466 E.01167
M204 P4000
G1 X141.452 Y116.777 F18000
M204 P500
;TYPE:External perimeter
G1 F2400
G1 X141.452 Y130.224 E.51107
G1 X141.386 Y130.385 E.00661
G1 X141.223 Y130.453 E.00671
G1 X136.776 Y130.453 E.16901
G1 X136.614 Y130.387 E.00665
G1 X136.547 Y130.224 E.0067
G1 X136.547 Y116.777 E.51107
G1 X136.615 Y116.613 E.00675
G1 X136.732 Y116.552 E.00501
G1 X141.223 Y116.548 E.17069
G1 X141.386 Y116.616 E.00671
G1 X141.429 Y116.721 E.00431
M204 P4000
G1 X141.449 Y117.121 F18000
G1 E-.7 F2100
G1 Z.4 F720
G1 X141.041 Y33.577 F18000
G1 Z.2 F720
G1 E.7 F2100
M204 P500
;TYPE:Perimeter
G1 F2400
G3 X141.074 Y33.638 I-.731 J.44 E.00264
G1 X143.925 Y40.518 E.28304
G1 X143.976 Y40.825 E.01183
G1 X143.893 Y41.11 E.01128
G1 X143.706 Y41.327 E.01089
G3 X140.371 Y42.733 I-47.358 J-107.701 E.13756
G1 X140.074 Y42.784 E.01145
G1 X139.77 Y42.696 E.01203
G1 X139.548 Y42.495 E.01138
G1 X139.511 Y42.437 E.00261
G1 X136.624 Y35.482 E.2862
G1 X136.574 Y35.173 E.0119
G1 X136.669 Y34.867 E.01218
G1 X136.876 Y34.65 E.0114
G1 X136.995 Y34.586 E.00514
G1 X140.178 Y33.267 E.13095
G1 X140.485 Y33.216 E.01183
G1 X140.779 Y33.304 E.01166
G3 X141.008 Y33.527 I-.469 J.713 E.01222
M204 P4000
G1 X140.652 Y33.813 F18000
M204 P500
;TYPE:External perimeter
G1 F2400
G1 X143.503 Y40.693 E.28304
G1 X143.504 Y40.864 E.0065
G1 X143.379 Y40.992 E.0068
G1 X140.196 Y42.31 E.13093
G1 X140.018 Y42.309 E.00677
G1 X139.909 Y42.212 E.00555
G1 X137.046 Y35.307 E.2841
G1 X137.046 Y35.133 E.00661
G1 X137.17 Y35.008 E.00669
G1 X140.353 Y33.69 E.13093
G1 X140.531 Y33.691 E.00677
G1 X140.61 Y33.77 E.00425
M204 P4000
G1 X140.781 Y34.132 F18000
G1 E-.7 F2100
G1 Z.4 F720
G1 X105.526 Y34.37 F18000
G1 Z.2 F720
G1 E.7 F2100
M204 P500
;TYPE:Perimeter
G1 F2400
G1 X105.638 Y34.209 E.00745
G1 X105.869 Y34.065 E.01035
G1 X106.158 Y34.024 E.01109
G1 X106.371 Y34.074 E.00832
G1 X109.554 Y35.393 E.13095
G1 X109.799 Y35.565 E.01138
G1 X109.946 Y35.822 E.01125
G1 X109.973 Y36.103 E.01073
G1 X109.925 Y36.289 E.0073
G1 X107.074 Y43.17 E.28308
G1 X106.889 Y43.426 E.012
G1 X106.625 Y43.568 E.01139
G1 X106.332 Y43.584 E.01115
G3 X102.995 Y42.222 I51.338 J-130.542 E.13699
G1 X102.757 Y42.058 E.01099
G1 X102.6 Y41.781 E.0121
G1 X102.582 Y41.47 E.01184
G1 X102.624 Y41.326 E.0057
G1 X105.475 Y34.445 E.28308
G1 X105.492 Y34.42 E.00115
M204 P4000
G1 X105.897 Y34.62 F18000
M204 P500
;TYPE:External perimeter
G1 F2400
G1 X106.007 Y34.503 E.0061
G3 X106.196 Y34.497 I.114 J.57 E.00722
G1 X109.379 Y35.815 E.13093
G1 X109.505 Y35.944 E.00685
G1 X109.503 Y36.114 E.00646
G1 X106.652 Y42.995 E.28308
G1 X106.523 Y43.12 E.00683
G1 X106.353 Y43.118 E.00646
G1 X103.17 Y41.8 E.13093
G1 X103.045 Y41.674 E.00675
G1 X103.047 Y41.501 E.00658
G1 X105.874 Y34.676 E.28076
M204 P4000
G1 X106.241 Y34.516 F18000
G1 E-.7 F2100
G1 Z.4 F720
G1 X177.91 Y22.015 F18000
G1 Z.2 F720
G1 E.7 F2100
M204 P500
;TYPE:Solid infill
;WIDTH:0.500502
G1 F2400
G1 X177.191 Y21.296 E.03869
G1 X176.544 Y21.296 E.02462
G1 X177.704 Y22.456 E.06242
G1 X177.704 Y23.104 E.02466
G1 X175.896 Y21.296 E.09729
G1 X175.249 Y21.296 E.02462
G1 X177.704 Y23.751 E.1321
G1 X177.704 Y24.398 E.02462
G1 X174.602 Y21.296 E.16691
G1 X173.955 Y21.296 E.02462
G1 X177.704 Y25.045 E.20173
G1 X177.704 Y25.692 E.02462
G1 X173.308 Y21.296 E.23654
G1 X172.661 Y21.296 E.02462
G1 X177.704 Y26.339 E.27135
G1 X177.704 Y26.986 E.02462
G1 X172.014 Y21.296 E.30617
G1 X171.367 Y21.296 E.02462
G1 X177.704 Y27.633 E.34098
G1 X177.704 Y28.28 E.02462
G1 X170.72 Y21.296 E.3758
G1 X170.072 Y21.296 E.02466
G1 X177.704 Y28.928 E.41066
G1 X177.704 Y29.575 E.02462
G1 X169.425 Y21.296 E.44548
G1 X168.778 Y21.296 E.02462
G1 X177.704 Y30.222 E.48029
G1 X177.704 Y30.869 E.02462
G1 X168.131 Y21.296 E.51511
G1 X167.484 Y21.296 E.02462
G1 X177.704 Y31.516 E.54992
G1 X177.704 Y32.163 E.02462
G1 X166.837 Y21.296 E.58473
G1 X166.19 Y21.296 E.02462
G1 X177.704 Y32.81 E.61955
G1 X177.704 Y33.457 E.02462
G1 X165.543 Y21.296 E.65436
G1 X164.895 Y21.296 E.02466
G1 X177.704 Y34.105 E.68923
G1 X177.704 Y34.752 E.02462
G1 X164.248 Y21.296 E.72404
G1 X163.601 Y21.296 E.02462
G1 X177.704 Y35.399 E.75886
G1 X177.704 Y36.046 E.02462
G1 X162.954 Y21.296 E.79367
G1 X162.307 Y21.296 E.02462
G1 X177.704 Y36.693 E.82848
G1 X177.704 Y37.34 E.02462
G1 X161.66 Y21.296 E.8633
G1 X161.013 Y21.296 E.02462
G1 X177.704 Y37.987 E.89811
G1 X177.704 Y38.634 E.02462
G1 X160.366 Y21.296 E.93293
G1 X159.719 Y21.296 E.02462
G1 X177.704 Y39.281 E.96774
G1 X177.704 Y39.929 E.02466
G1 X159.071 Y21.296 E1.00261
G1 X158.424 Y21.296 E.02462
G1 X177.704 Y40.576 E1.03742
G1 X177.704 Y41.223 E.02462
G1 X157.777 Y21.296 E1.07223
G1 X157.13 Y21.296 E.02462
G1 X177.704 Y41.87 E1.10705
G1 X177.704 Y42.517 E.02462
G1 X156.483 Y21.296 E1.14186
G1 X155.836 Y21.296 E.02462
G1 X177.704 Y43.164 E1.17668
G1 X177.704 Y43.811 E.02462
G1 X155.189 Y21.296 E1.21149
G1 X154.542 Y21.296 E.02462
G1 X177.704 Y44.458 E1.2463
G1 X177.704 Y45.106 E.02466
G1 X153.894 Y21.296 E1.28117
G1 X153.247 Y21.296 E.02462
G1 X177.704 Y45.753 E1.31599
G1 X177.704 Y46.4 E.02462
M73 P1 R64
G1 X152.6 Y21.296 E1.3508
G1 X151.953 Y21.296 E.02462
G1 X177.704 Y47.047 E1.38561
G1 X177.704 Y47.694 E.02462
G1 X151.306 Y21.296 E1.42043
G1 X150.659 Y21.296 E.02462
M73 P2 R64
G1 X177.704 Y48.341 E1.45524
G1 X177.704 Y48.988 E.02462
G1 X150.012 Y21.296 E1.49005
G1 X149.365 Y21.296 E.02462
G1 X177.704 Y49.635 E1.52487
G1 X177.704 Y50.282 E.02462
G1 X148.718 Y21.296 E1.55968
G1 X148.07 Y21.296 E.02466
G1 X177.704 Y50.93 E1.59455
G1 X177.704 Y51.577 E.02462
G1 X147.423 Y21.296 E1.62936
G1 X146.776 Y21.296 E.02462
G1 X177.704 Y52.224 E1.66418
G1 X177.704 Y52.871 E.02462
G1 X146.129 Y21.296 E1.69899
G1 X145.482 Y21.296 E.02462
G1 X177.704 Y53.518 E1.73381
G1 X177.704 Y54.165 E.02462
G1 X144.835 Y21.296 E1.76862
G1 X144.188 Y21.296 E.02462
G1 X177.704 Y54.812 E1.80343
G1 X177.704 Y55.459 E.02462
G1 X143.541 Y21.296 E1.83825
G1 X142.893 Y21.296 E.02466
G1 X177.704 Y56.107 E1.87311
G1 X177.704 Y56.754 E.02462
G1 X142.246 Y21.296 E1.90793
G1 X141.599 Y21.296 E.02462
G1 X177.704 Y57.401 E1.94274
G1 X177.704 Y58.048 E.02462
G1 X140.952 Y21.296 E1.97756
G1 X140.305 Y21.296 E.02462
G1 X177.704 Y58.695 E2.01237
G1 X177.704 Y59.342 E.02462
G1 X139.658 Y21.296 E2.04718
G1 X139.011 Y21.296 E.02462
G1 X177.704 Y59.989 E2.082
G1 X177.704 Y60.636 E.02462
G1 X138.364 Y21.296 E2.11681
G1 X137.716 Y21.296 E.02466
G1 X177.704 Y61.284 E2.15168
G1 X177.704 Y61.931 E.02462
G1 X137.069 Y21.296 E2.18649
G1 X136.422 Y21.296 E.02462
G1 X177.704 Y62.578 E2.22131
G1 X177.704 Y63.225 E.02462
